/* XPM */
static char *rcp50806344230203549[] = {
/* columns rows colors chars-per-pixel */
"60 48 27 1 ",
"  c #010101",
". c #040404",
"X c gray4",
"o c #0C0C0C",
"O c #101010",
"+ c #161616",
"@ c #181818",
"# c gray11",
"$ c #222222",
"% c gray14",
"& c #282828",
"* c #2C2C2C",
"= c gray19",
"- c #343434",
"; c gray22",
": c #3C3C3C",
"> c gray25",
", c #444444",
"< c #484848",
"1 c #4C4C4C",
"2 c #505050",
"3 c gray33",
"4 c #585858",
"5 c gray36",
"6 c #606060",
"7 c #797979",
"8 c #8E8E8E",
/* pixels */
"++++++++++++++++++++++++++++++++++++++++++++++++++++++++++++",
"888888888888888888888888888888888888888888888888888888888888",
"888888888888888888888888888888888888888888888888888888888888",
"888888888888888888888888888888888888888888888888888888888888",
"888888888888888888888888888888888888888888888888888888888888",
"888888888888888888888888888888888888888888888888888888888888",
"88888888+++++++++++++++++++++++++++++++++++++++++++++++++888",
"88888888+66666666666666666666666666666666666666666666666+888",
"88888888+55555555555555555555555555555555555555555555555+888",
"88888888+44444444444444444444444444444444444444444444444+888",
"88888888+33333333333333333333333333333333333333333333333+888",
"88888888+22222222222222222222222222222222222222222222222+888",
"88888888+11111111111111111111111111111111111111111111111+888",
"88888888+<<<<<<<<<<<<<<<<<<<<<<<<<<<<<<<<<<<<<<<<<<<<<<<+888",
"88888888++++++++++++++,,,,,,,,,,,,,,,,,,,,,,,,,,,,,,,,,,+888",
"88888888+777777777777+>>>>>>>>>>>>>>>>>>>>>>>>>>>>>>>>>>+888",
"88888888+777777777777+::::::::::::::::::::::::::::::::::+888",
"88888888+777777777777+;;;;;;;;;;;;;;;;;;;;;;;;;;;;;;;;;;+888",
"88888888+777777777777+----------------------------------+888",
"88888888+777777777777+==================================+888",
"88888888+777777777777+**********************************+888",
"88888888+777777777777+&&&&&&&&&&&&&&&&&&&&&&&&&&&&&&&&&&+888",
"88888888+777777777777++++++++++++%%%%%%%%%%%%%%%%%%%%%%%+888",
"88888888+777777777777+6666666666+$$$$$$$$$$$$$$$$$$$$$$$+888",
"88888888+777777777777+6666666666+#######################+888",
"88888888+777777777777+6666666666+@@@@@@@@@@@@@@@@@@@@@@@+888",
"88888888+777777777777+6666666666+++++++++++++++++++++++++888",
"88888888+777777777777+6666666666+OOOOOOOOOOOOOOOOOOOOOOO+888",
"88888888+777777777777+6666666666+ooooooooooooooooooooooo+888",
"88888888+777777777777+6666666666+++++++++++++           +888",
"88888888+777777777777+6666666666+11111111111+oXXXXXXXXXX+888",
"88888888+777777777777+6666666666+11111111111+           +888",
"88888888+777777777777+6666666666+11111111111+ XXXXXXXXXX+888",
"88888888+777777777777+6666666666+11111111111+XXXXXXXXXXX+888",
"88888888+777777777777+6666666666+11111111111+           +888",
"88888888+777777777777+6666666666+11111111111+++++++++  .+888",
"88888888+777777777777+6666666666+11111111111+;;;;;;;+...+888",
"88888888+777777777777+6666666666+11111111111+;;;;;;;+.. +888",
"88888888+777777777777+6666666666+11111111111+;;;;;;;+ . +888",
"88888888+777777777777+6666666666+11111111111+;;;;;;;+ . +888",
"88888888+777777777777+6666666666+11111111111+;;;;;;;+ ..+888",
"88888888+++++++++++++++++++++++++++++++++++++++++++++++++888",
"888888888888888888888888888888888888888888888888888888888888",
"888888888888888888888888888888888888888888888888888888888888",
"888888888888888888888888888888888888888888888888888888888888",
"888888888888888888888888888888888888888888888888888888888888",
"888888888888888888888888888888888888888888888888888888888888",
"888888888888888888888888888888888888888888888888888888888888"
};
