/* XPM */
static char *_43f5b7d72ba4f60cf7af4d390964524hkEa3v4aiwPg2Hjz[] = {
/* columns rows colors chars-per-pixel */
"64 64 11 1 ",
"  c #228B22",
". c black",
"X c #371C1C",
"o c #620000",
"O c #482626",
"+ c #444444",
"@ c #494949",
"# c #565656",
"$ c #5B5B5B",
"% c #E5B3B3",
"& c #FFC5C5",
/* pixels */
"                                                                ",
"                                                                ",
"                                                                ",
"                                                                ",
"                                                                ",
"                                                                ",
"                                                                ",
"                                                                ",
"                                                                ",
"                                                                ",
"                                                                ",
"                                                                ",
"                                                                ",
"                                                                ",
"                                                                ",
"                                                                ",
"                                                                ",
"                                                                ",
"                                                                ",
"                                                                ",
"                                                                ",
"                                                                ",
"                                                                ",
"                                                                ",
"                                                                ",
"                                                                ",
"                                                                ",
"                                                                ",
"                                                                ",
"                                                                ",
"                                                                ",
"                                                                ",
"                                                                ",
"                                                                ",
"                          XOXOOO                                ",
"                         XOOXOOOO                               ",
"                         XOXOOXOOX                              ",
"                        XOOXOX&&&X                              ",
"                        XOXOX&&&&OX                             ",
"                        XOXO&&.&.&X                             ",
"                       XOXOO&&.&.&X                             ",
"                       XOXO&&&&&&&X                             ",
"                       XOXO&&&&&&OX                             ",
"                      XOXOOo%%%OOOX                             ",
"                      XOXOOooooOOOO                             ",
"                      XOOOOooooOOOo                             ",
"                      OoOOooooooOooo                            ",
"                     oooOoooooooooooo                           ",
"                     oooooooooooooooo                           ",
"                    oooooooooooooooooo                          ",
"                   oooooooooooooooooooo                         ",
"                   oooooooooooooooooooo                         ",
"                   oooooooooooooooooooo                         ",
"                   oooooooooooooooooooo                         ",
"                    oooooooo# $$$ooooo                          ",
"                         ####  @@@@o                            ",
"                        ++++   $$$$                             ",
"                        ####    $$$                             ",
"                       ####    @@@                              ",
"                       +++    $$$$                              ",
"                       ###    $$$                               ",
"                      ###     $$$$                              ",
"                      ###                                       ",
"                     ####                                       "
};
